X:1
T:Merry Wakefield
M:9/8
L:1/8
R:Jig
S:Frank Kidson - Old English Country Dances (1890)
Z:AK/Fiddler's Companion
K:G
Bdg gdB gdB|dfa afd a2c|Bdg gdB gdB|gdB|B/c/dB e/f/gB A2G:|
|:Bcd dBG AFD|EFG ABc c2B|gdB ecA dBG|B/c/dB e/f/gB A2G:|
